X: 40776
T: Tournmore, The
R: polka
M: 2/4
K: Dmajor
|:f>f fd|cd ef|g>g gf|ed Ad|
f>f fd|cd ef|ab/a/ ge|ed d2:|
|:ef/e/ dB|BA cd|ef/e/ dB|BA A2|
ef/e/ dB|BA ce|ab/a/ ge|ed d2:|

